X:1
T:Quest-ce qu'amour
T:Ebran
T:Source : Livre VII de chansons nouvelles à 4---Paris---N.du Chemin---1550. Editor : André Vierendeels  (22/01/18). Notes : Original clefs : C1, C3, C4, F4 Original note values have been halved Editorial accidentals above the stave
T:Quest-ce qu'amour
T:©
T:©
T:©
T:©
C:Ebran
Z:©
%%score [ 1 [ 2 3 ] 4 ]
L:1/8
Q:1/4=120
M:2/2
K:F
V:1 treble nm="Alto" snm="A"
V:2 treble-8 nm="Tenor 1" snm="T 1"
V:3 treble-8 nm="Tenor 2" snm="T 2"
V:4 bass nm="Bass" snm="B"
V:1
 z8 | z4 F4 | G2 G2 A2 A2 | c4 z2 F2 | A2 A2 B2 B2 | A4 G4 | A4 B4 | G2 G4 c2 | z2 C2 F2 G2 | %9
w: |Qu'est|ce qu'a- mour, l'un|dict, l'un|dict que c'est un|dieu, l'au-|tre'au con-|trai- re'a- mour,|a- mour quoy|
w: |C'est|un tour- ment pi-|re, pi-|re que n'est un|feu, chas-|cun en|dict se- lon,|se- lon sa|
 A2 A2 B2 A2- | A2 G4 F2- | F2 E2 F4 :| C8 | C2 C2 DCDE | F2 A2 A2 B2- | BA A4 G2 | A4 c4 | %17
w: que l'on di- *||* * e,||||||
w: fan- ta- si- *||* * e,|mais|veulx tu bien _ _ _|_ sça- voir com-|* ment il ly-|e, et|
 B2 A2 G4- | G2 F2 G2 D2 | EFGE F3 E | D4 C4 | z2 G2 G2 G2 | E2 G2 A2 G2 | F2 E2 FEED/C/ | D4 E4 | %25
w: ||||||||
w: si il est|_ aux siens, doulx|ou _ _ _ _ _|a- mer,|de- man- der|fault qu'il en sem-|ble'à ma my- * * * *|* e,|
 z8 | z2 F2 G4 | A4 G4 | z8 | z4 z2 c2 | A2 B2 c4 | z4 G4 | A2 A2 G2 B2 | A2 G3 F F2- | %34
w: |||||||||
w: |el- le|sur tous,||el-|le sur tous,|el-|le sur tous scait|que vault _ bien|
 F2 E2 F2 A2- | AG G3 F F2- | F2 E2 F4- | F8 |] %38
w: ||||
w: _ ay- mer, bien|_ _ ay- * *|* * mer.|_|
V:2
 c4 d2 d2 | e2 c4 f2- | f2 e2 d2 c2 | c6 c2 | c2 c2 d2 e2 | f4 e4 | f4 f4 | e2 d2 edcB | %8
w: Qu'est ce qu'a-|mour, l'un dict|_ que c'est in|dieu, l'un|dict que c'est un|dieu, l'au-|tre'au con-|trai- re'a- mour _ , _|
w: C'est un tour-|ment pi- re|_ que n'est un|feu, pi-|re que n'est un|feu, chas-|cun en|dict se- lon, _ _ _|
 A3 G F2 c2- | c2 f4 e2 | d4 c4 | c4 c4 :| A8 | G2 G2 B2 B2 | c2 f2 f4- | f2 f2 d4 | d2 f4 e2 | %17
w: _ _ _ a-|* mour quoy|que l'on|di- e,||||||
w: _ _ _ se-|* lon sa|fan- ta-|si- e,|mais|veulx tu bien sca-|voir com- ment|_ il ly-|e, et si|
 d2 c4 e2 | d2 c2 c2 B2 | c4 z2 A2 | B3 A G2 c2- | c2 B2 c4 | z2 c2 c2 c2 | F2 c2 d2 c2 | %24
w: |||||||
w: il est aux|siens, doulx ou a-|mer, aux|siens, _ doulx ou|_ a- mer,|de- man- der|fault qu'il en sem-|
"^-natural" c2 B2 c4 | F2 c2 B2 A2 | G2 F2 B4 | A2 c2 d2 e2 | c2 f2 e2 d2 |"^-natural" c2 B2 c4 | %30
w: ||||||
w: ble'à ma my-|e, qu'il en sem-|ble'à ma my-|e, el- le sur|tous sçait que vault|bien ay- mer,|
 z2 f2 f2 e2 | f2 d2 d2 e2 | f2 c4 B2 | c4 z2 F2 | G2 G2 AGAB | c2 e2 d2 c2 | c2 c2 c4- | c8 |] %38
w: ||||||||
w: el- le sur|tous sçait que vault|bien ay- *|mer, el-|le sur tous _ _ _|_ sçait que vault|bien ay- mer.|_|
V:3
 z4 F4 | G2 G2 A2 A2 | c4 z2 F2 | A2 G2 A3 G | AB c4 B2 | c4 z2 c2 | c4 d4 | c2 B2 c2 C2 | %8
w: Qu'est|ce qu'a- mour, l'un|dict, l'un|dict que c'est _|_ _ _ un|dieu, l'au-|tre'au con-|trai- * * re'a-|
w: C'est|un tour- ment pi-|re, pi-|re que n'est _|_ _ _ un|feu, chas-|cun en|dict _ _ se-|
 F4 z2 C2 | F4 G2 A2 | B4 A3 G/F/ | G4 F4 :| F8 | E2 E2 FEFG | A2 c2 c2 d2 | d2 c2 B4 | A8 | %17
w: mour, quoy|que l'on di-||* e,||||||
w: lon, se-|lon sa fan-|ta- si- * *|* e,|mais|veulx tu bien _ _ _|_ sça- voir com-|ment il ly-|e,|
 z4 c4 | B2 A2 G2 B2 | A2 G2 A2 F2 | G3 F E2 DC | D4 C4 | z8 | z4 z2 G2 | G2 G2 E2 G2 | %25
w: ||||||||
w: et|si il est aux|siens, doulx ou a-||* mer,||de-|man- der fault qu'il|
 A2 G2 F2 E2 | D2 F4 E2 | F2 A2 B2 c2 | A2 c2 B3 A | G2 F2 G4 | z2 F2 G2 G2 | F4 B4 | A2 F2 G2 G2 | %33
w: ||||||||
w: en sem- ble'à ma|my- * *|e, el- le sur-|tous sçait que vault|bien ay- mer,|el- le sur|tous sçait|que vault bien ay-|
 F2 c2 A2 B2 | c4 z2 F2 | G3 A BAAG/F/ | G2 G2 F4- | F8 |] %38
w: |||||
w: mer, el- le sur|tous sçait|que vault bien _ _ _ _|_ ay- mer.|_|
V:4
 F,4 D,2 D,2 | C,2 C,2 F,4 | z2 C,2 F,4 | z2 C,2 F,4- | F,2 A,2 G,2 G,2 | F,4 C,4 | F,4 B,,4 | %7
w: Qu'est ce qu'a-|mour, l'un dict,|l'un dict,|l'un dict|_ que c'est un|dieu, l'au-|tre'au con|
w: |||||||
w: C'est un tour-|ment, pi- re,|pi- re,|pi- re|_ que n'est un|feu, chas-|cun en|
 C,2 G,,2 C,4 | z8 | z2 F,,2 B,,2 C,2 | D,2 E,2 F,4 | C,4 F,,4 :| F,,8 | C,2 C,2 B,,2 A,,G,, | %14
w: tra- re'a- mour,||quoy- que l'on|di- * *|* e,|||
w: |||* ta- *||||
w: dict se- lon,||se- lon sa|fan- ta si-|* e,|mais|veulx tu bien _ _|
 F,,2 F,2 F,2 B,,C, | D,E, F,2 G,4 | D,4 z4 | z8 | z2 F,2 E,2 D,2 | C,2 E,2 D,3 C, | %20
w: ||||||
w: ||||||
w: _ sça- voir com- *|ment _ il ly-|e,||et si il|est aux siens, _|
 B,,2 B,,2 C,2 A,,2 | G,,4 z2 C,2 | C,2 C,2 F,,2 C,2 | D,2 C,2 B,,2 C,2 | G,,4 C,4 | %25
w: |||||
w: |||||
w: _ doulx ou a-|mer, de-|man- der fault qu'il|en sem- ble'à ma|my- e,|
 z2 C,2 D,2 C,2 | B,,2 A,,2 G,,4 | F,,2 F,2 F,2 E,2 | F,2 A,2 G,3 F, | E,2 D,2 C,2 C,2 | %30
w: |||||
w: |||||
w: qu'il en sem-|ble'à ma my-|e, el- le sur|tous sçait que vault|bien ay- mer, el-|
 D,2 D,2 C,2 C,2 | A,,2 B,,2 G,,2 G,,2 | F,,4 z4 | z2 C,2 D,2 D,2 | C,4 F,4 | E,2 C,2 D,2 F,2 | %36
w: ||||||
w: ||||||
w: le sur- tous sçait|que vault bien ay-|mer,|el- le sur|tous sçait|que vault bie _|
 C,4 F,,4- | F,,8 |] %38
w: ||
w: ||
w: ay- mer.|_|

